X:28
T:The butcher's apron
R:Reel
O:Ireland
S:O'Neill's
B:O'Neill's 1483
Z:Transcription, arrangement, chords:Mike Long
M:C|
L:1/8
K:D
"D"d2(AF) d2(AF)|"G"Efed "A"cABc|"D"defe "G"dcdB|"A"AdAF EFGE|\
"D"d2(AF) d2(AF)|"G"Efed "A"cABc|
"D"defe "G"dcdB|"A"ABAG "D"FDD2:|\
|:"D"a2(fa) dafa|"G"b2(gb) ebgb|"D"a2(fa) dafa|
"A"gefd ceef|\
"D"a2(fa) dafa|"G"b2(gb) ebgb|"D"agfe "G"dcdB|[1 "A"ABAG "(D)"FDD2:|[2 "A"AdAF EFGE|]
